X: 27663
T: More Luck To Us
R: reel
M: 4/4
K: Dmajor
|:D2DF A2AB|AFdB AFDF|Eeed e2(ef)|gefd BABc|
d2DF A2AB|AFdB AFDF|G2BG F2AF|1 EFGA B2FE:|2 EFGA B2Ec||
|:dcde dAFA|dcdB A2FD|EFGA BABd|gefd B2(AB)|
dcde dAFA|dcdB AFDF|G2(BG) F2(AF)|1 GABc dABc:|2 GABc d2EF||

